X:1
P: Road to Boston
C: from R. Miller/New England Fiddlers Repertoire
C: Arr. T. Traub 8-10-03
R: reel
M: 4/4
K: D
L: 1/4
|: e |"D"f3 e/f/|"G"g f e d|"A"c d e f |"D"d A F A|"D"f3 e/f/|
"G"g f e d|"A"c d e f |"D"d3 :||: f/g/|"D"a3 ^g/a/|"G"b a g f|
"Em"g3 f/g/|"A"a g f e |"D"f3 e/f/|"G"g f e d|"A"c d e c |"D"d A d :|
